packages/core/src/Assets/SvgComponents/settings/interval-disabled.svg

<?xml version="1.0" encoding="UTF-8"?>
<svg width="160px" height="120px" viewBox="0 0 160 120" version="1.1" xmlns="http://www.w3.org/2000/svg" xmlns:xlink="http://www.w3.org/1999/xlink">
    <!-- Generator: Sketch 55.2 (78181) - https://sketchapp.com -->
    <title>Group</title>
    <desc>Created with Sketch.</desc>
    <defs>
        <linearGradient x1="50%" y1="126.023094%" x2="50%" y2="32.9067953%" id="linearGradient-1">
            <stop stop-color="#FFFFFF" stop-opacity="0" offset="0%"></stop>
            <stop stop-color="#85ACB0" stop-opacity="0.16" offset="100%"></stop>
        </linearGradient>
    </defs>
    <g id="Symbols" stroke="none" stroke-width="1" fill="none" fill-rule="evenodd">
        <g id="images/img-charts-without-countdown-scale">
            <g id="Group">
                <rect id="bg-all" fill="#F2F3F4" fill-rule="nonzero" x="0" y="0" width="160" height="120"></rect>
                <polygon id="chart-bg" fill="url(#linearGradient-1)" points="95.9975186 34.453144 86.5 34.3877992 81.5 60.6560838 79.5 40.9548704 54.5 34.3877992 52.5 16 29.5 34.3877992 25.5 54.0890127 22.5 16 13.5 73.7902261 -5.82645043e-13 73.7902261 3.63797881e-12 119.103017 96 120"></polygon>
                <path d="M96,34.0767664 C95.9744391,34.4118839 95.7593499,34.6670853 95.5024665,34.6670853 L86.9257737,34.6670853 L81.9952597,60.3412469 C81.9008675,61.0837685 81.082303,61.0662756 81.0064192,60.3201151 L79.0247266,40.8342642 L54.1111833,34.4210548 C54.0553737,34.3295927 54.0192743,34.2201969 54.0066399,34.1042454 L52.1138188,16.7330614 L29.932301,34.4346921 L25.9838943,53.8469011 C25.8408201,54.5503207 25.0605392,54.4695823 25.0034016,53.7454462 L22.3382508,19.968503 L13.9902757,73.4758141 C13.9426762,73.7809089 13.7379307,74 13.5004036,74 L3.56692453e-12,74 L3.56692453e-12,72.6888962 L13.0923116,72.6888962 L22.0108006,15.5248105 C22.1254462,14.7899762 22.9391654,14.8426568 22.9980335,15.5887245 L25.7183046,50.0642393 L29.0177501,33.8426265 C29.0509385,33.6794568 29.1308751,33.5393727 29.2409007,33.4515683 L52.2415884,15.0962114 C52.5482187,14.8515096 52.9457933,15.0975731 52.9965592,15.5634714 L54.9773207,33.7417208 L79.8924343,40.1575036 C79.9492347,40.2505895 79.9855999,40.3622194 79.9976169,40.4803818 L81.5569981,55.8136726 L86.0089857,33.9037654 C86.0491693,33.5876678 86.2577706,33.3559884 86.5021975,33.3559884 C91.75802,33.3223935 94.607274,33.3223935 95.0499592,33.3559884 C95.4926445,33.3895833 95.8093248,33.6298427 96,34.0767664 Z" id="chart-line" fill="#85ACB0" fill-rule="nonzero"></path>
                <path d="M115.279851,33.6666667 L121.716418,26 L160,26 L160,42 L121.716418,42 L115.279851,34.3333333 L113,34.3333333 L113,33.6666667 L115.279851,33.6666667 Z M98.8612798,33.6666667 L99.6666667,33.6666667 L99.6666667,34.3333333 L98.9989098,34.3333333 C98.9996347,34.3554665 99,34.3776906 99,34.4 C99,35.5045695 98.1045695,36.4 97,36.4 C95.8954305,36.4 95,35.5045695 95,34.4 C95,33.2954305 95.8954305,32.4 97,32.4 C97.8456922,32.4 98.5687892,32.9248926 98.8612798,33.6666667 Z M102.333333,34.3333333 L102.333333,33.6666667 L105,33.6666667 L105,34.3333333 L102.333333,34.3333333 Z M107.666667,34.3333333 L107.666667,33.6666667 L110.333334,33.6666667 L110.333334,34.3333333 L107.666667,34.3333333 Z" id="current-spot" fill="#FF444F" fill-rule="nonzero"></path>
            </g>
        </g>
    </g>
</svg>

<svg width="160" height="120" xmlns="http://www.w3.org/2000/svg"><defs><linearGradient x1="50%" y1="126.023%" x2="50%" y2="32.907%" id="a"><stop stop-color="#FFF" stop-opacity="0" offset="0%"/><stop stop-color="#85ACB0" stop-opacity=".16" offset="100%"/></linearGradient></defs><g fill="none" fill-rule="evenodd"><path fill="#F2F3F4" fill-rule="nonzero" d="M0 0h160v120H0z"/><path fill="url(#a)" d="m95.998 34.453-9.498-.065-5 26.268-2-19.701-25-6.567L52.5 16l-23 18.388-4 19.701L22.5 16l-9 57.79H0v45.313L96 120z"/><path d="M96 34.077c-.026.335-.24.59-.498.59h-8.576l-4.93 25.674c-.095.743-.914.725-.99-.02l-1.981-19.487-24.914-6.413a.771.771 0 0 1-.104-.317l-1.893-17.37-22.182 17.7-3.948 19.413c-.143.703-.923.623-.98-.102L22.337 19.97 13.99 73.476c-.047.305-.252.524-.49.524H0v-1.311h13.092l8.919-57.164c.114-.735.928-.682.987.064l2.72 34.475 3.3-16.221a.667.667 0 0 1 .223-.391l23-18.356c.307-.244.705.002.756.467l1.98 18.179 24.915 6.416a.773.773 0 0 1 .106.322l1.559 15.334 4.452-21.91c.04-.316.249-.548.493-.548 5.256-.034 8.105-.034 8.548 0 .443.034.76.274.95.72Z" fill="#85ACB0" fill-rule="nonzero"/><path d="M115.28 33.667 121.716 26H160v16h-38.284l-6.436-7.667H113v-.666h2.28Zm-16.419 0h.806v.666h-.668L99 34.4a2 2 0 1 1-.139-.733Zm3.472.666v-.666H105v.666h-2.667Zm5.334 0v-.666h2.666v.666h-2.666Z" fill="#FF444F" fill-rule="nonzero"/></g></svg>
